build/img/icon-tag.svg

<svg height="35" viewBox="0 0 35 35" width="35" xmlns="http://www.w3.org/2000/svg"><path d="m11.0708 8.58466c-.1271-.12717-.3035-.20032-.4833-.20032s-.3561.07315-.4833.20032c-.12706.12717-.20027.30356-.20027.48338 0 .17981.07314.3562.20027.48337.1272.12724.3035.20032.4833.20032s.3562-.07315.4833-.20032.2003-.30356.2003-.48337c0-.17982-.0731-.35621-.2003-.48338z"/><path d="m34.8 2.85866-.8452-.84635.845-.84512c.2669-.266983.2669-.6999 0-.966952-.267-.2669839-.6998-.2669839-.9668 0l-.8445.844572-.8329-.833975c-.1281-.1282615-.3019-.2004599-.4832-.2005283l-11.5701-.00642672c-.0007 0-.0013 0-.0019 0-.9136 0-1.7726.35579602-2.4186 1.00196002l-5.7737 5.7745c-.2669.26698-.2669.6999 0 .96695.267.26699.6998.26699.9668 0l5.7737-5.7745c.3878-.38793.9033-.60145 1.4518-.60145h.0012l11.2868.00629.6335.6342-2.5365 2.53679c-1.0755-.64432-2.4935-.50382-3.4194.42204-.5289.52905-.8201 1.23237-.8201 1.98047s.2912 1.45142.8201 1.98046c.546.546 1.2631.819 1.9803.819.7171 0 1.4342-.273 1.9801-.819.9244-.92456 1.0658-2.33995.425-3.41513l2.5367-2.53713.6446.64548-.0062 11.27329c-.0004.548-.2139 1.0633-.6015 1.4509l-16.6812 16.6837c-.3878.3878-.9035.6014-1.4518.6014-.5484 0-1.0641-.2136-1.4519-.6014l-11.47149-11.4734c-.38787-.3878-.60142-.9035-.60142-1.452s.21355-1.0642.60142-1.452l7.36873-7.3699c.26695-.267.26695-.6999 0-.9669-.26701-.267-.69972-.267-.9668 0l-7.36873 7.3698c-.645999.6461-1.00181 1.5052-1.00181 2.419s.355811 1.7729 1.00181 2.419l11.47149 11.4733c.6669.6669 1.5427 1.0004 2.4187 1.0004.8759 0 1.7517-.3335 2.4186-1.0004l16.6812-16.6838c.6455-.6456 1.0012-1.504 1.0018-2.4171l.0064-11.55653c.0001-.18132-.0718-.35525-.2-.48351zm-5.7404 5.10591c-.2707.27075-.6306.41986-1.0133.41986-.3829 0-.7427-.14911-1.0134-.41986-.5589-.55885-.5589-1.46824 0-2.02709.2794-.2795.6463-.41917 1.0134-.41917.1382 0 .2764.01989.4099.05955l-.789.78912c-.2669.26698-.2669.6999 0 .96695.1335.13353.3085.20026.4834.20026s.3499-.06673.4834-.20026l.7868-.78693c.1421.48672.0219 1.0345-.3612 1.41757z"/><path d="m29.2003 13.7645-7.9666-7.96781c-1.0553-1.05549-2.7725-1.05535-3.8277 0l-12.60694 12.60891c-.51126.5112-.79283 1.191-.79283 1.9141s.2815 1.403.79276 1.9142l7.96661 7.9677c.5112.5113 1.1909.793 1.9138.793.723 0 1.4028-.2816 1.9139-.7929l12.607-12.6089c.5112-.5113.7927-1.1911.7927-1.9142 0-.723-.2815-1.4028-.7927-1.9141zm-.9668 2.8613-12.6069 12.6091c-.253.2529-.5894.3923-.9471.3923s-.6941-.1394-.947-.3924l-7.9667-7.9678c-.253-.253-.39232-.5894-.39232-.9472-.00007-.3579.13932-.6943.39232-.9473l12.607-12.60885c.2611-.26118.6041-.39176.9471-.39176.3429 0 .686.13065.947.39176l7.9666 7.96775c.253.253.3923.5894.3923.9472s-.1393.6943-.3923.9472z"/><path d="m22.2904 13.677c.267-.267.267-.6999 0-.967-.267-.267-.6997-.267-.9668 0l-.3936.3937c-1.051-.6493-2.3996-.5622-3.2521.2903-.4971.4972-.7514 1.1722-.7161 1.9009.0341.7036.3371 1.3753.853 1.8913.0001.0001.0001.0001.0001.0002.5499.5501.6112 1.3837.1368 1.8582-.4746.4745-1.3082.4131-1.8582-.1369-.55-.5502-.6114-1.3839-.1369-1.8585.2669-.267.2669-.6999 0-.9669-.267-.267-.6997-.267-.9668 0-.8525.8525-.9395 2.2013-.2903 3.2526l-.4671.467c-.2669.267-.2669.6999 0 .967.1339.1336.3088.2004.4837.2004.175 0 .3499-.0668.4834-.2003l.4673-.4674c.4593.2837.9751.4274 1.4818.4274.6527-.0001 1.2901-.2375 1.77-.7175 1.0073-1.0075.9461-2.7082-.1364-3.7915-.0002-.0002-.0003-.0004-.0005-.0006-.2752-.2753-.4366-.6271-.4542-.9907-.0163-.3386.0963-.6467.3173-.8677.4744-.4746 1.3078-.4132 1.8579.1367.0001.0001.0001.0002.0001.0002.0001.0001.0002.0001.0002.0001.5499.5502.6112 1.3837.1367 1.8583-.267.267-.267.6999 0 .9669.1335.1336.3084.2003.4834.2003.1749 0 .3498-.0667.4833-.2003.8525-.8526.9396-2.2014.2904-3.2526z"/><path d="m15.3717 25.0116-3.511-3.5116c-.2669-.2668-.6996-.2669-.9668 0-.2669.267-.2669.6999 0 .967l3.5111 3.5116c.1335.1334.3084.2002.4834.2002.1749 0 .3498-.0668.4833-.2002.267-.267.267-.6999 0-.967z"/><path d="m9.98799 19.6269c-.12708-.1271-.30283-.2003-.48323-.2003-.17978 0-.35547.0731-.4833.2003-.12715.1272-.20029.3036-.20029.4841 0 .1798.07307.3562.20029.4833.12715.1272.30352.2004.4833.2004.18047 0 .35615-.0732.48323-.2004.12781-.1278.20101-.3035.20101-.4833 0-.1805-.0732-.3563-.20101-.4841z"/></svg>

<svg width="35" height="35" viewBox="0 0 35 35" xmlns="http://www.w3.org/2000/svg">
<path d="M11.0708 8.58466C10.9437 8.45749 10.7673 8.38434 10.5875 8.38434C10.4077 8.38434 10.2314 8.45749 10.1042 8.58466C9.97714 8.71183 9.90393 8.88822 9.90393 9.06804C9.90393 9.24785 9.97707 9.42424 10.1042 9.55141C10.2314 9.67865 10.4077 9.75173 10.5875 9.75173C10.7673 9.75173 10.9437 9.67858 11.0708 9.55141C11.1979 9.42424 11.2711 9.24785 11.2711 9.06804C11.2711 8.88822 11.198 8.71183 11.0708 8.58466Z" />
<path d="M34.8 2.85866L33.9548 2.01231L34.7998 1.16719C35.0667 0.900207 35.0667 0.46729 34.7998 0.200238C34.5328 -0.0667459 34.1 -0.0667459 33.833 0.200238L32.9885 1.04481L32.1556 0.210835C32.0275 0.0825735 31.8537 0.0103751 31.6724 0.0103067L20.1023 0.00387998C20.1016 0.00387998 20.101 0.00387998 20.1004 0.00387998C19.1868 0.00387998 18.3278 0.359676 17.6818 1.00584L11.9081 6.78034C11.6412 7.04732 11.6412 7.48024 11.9081 7.74729C12.1751 8.01428 12.6079 8.01428 12.8749 7.74729L18.6486 1.97279C19.0364 1.58486 19.5519 1.37134 20.1004 1.37134C20.1008 1.37134 20.1012 1.37134 20.1016 1.37134L31.3884 1.37763L32.0219 2.01183L29.4854 4.54862C28.4099 3.9043 26.9919 4.0448 26.066 4.97066C25.5371 5.49971 25.2459 6.20303 25.2459 6.95113C25.2459 7.69923 25.5371 8.40255 26.066 8.93159C26.612 9.47759 27.3291 9.75059 28.0463 9.75059C28.7634 9.75059 29.4805 9.47759 30.0264 8.93159C30.9508 8.00703 31.0922 6.59164 30.4514 5.51646L32.9881 2.97933L33.6327 3.62481L33.6265 14.8981C33.6261 15.4461 33.4126 15.9614 33.025 16.349L16.3438 33.0327C15.956 33.4205 15.4403 33.6341 14.892 33.6341C14.3436 33.6341 13.8279 33.4205 13.4401 33.0327L1.96861 21.5593C1.58074 21.1715 1.36719 20.6558 1.36719 20.1073C1.36719 19.5588 1.58074 19.0431 1.96861 18.6553L9.33734 11.2854C9.60429 11.0184 9.60429 10.5855 9.33734 10.3185C9.07033 10.0515 8.63762 10.0515 8.37054 10.3185L1.00181 17.6883C0.355811 18.3344 0 19.1935 0 20.1073C0 21.0211 0.355811 21.8802 1.00181 22.5263L12.4733 33.9996C13.1402 34.6665 14.016 35 14.892 35C15.7679 35 16.6437 34.6665 17.3106 33.9996L33.9918 17.3158C34.6373 16.6702 34.993 15.8118 34.9936 14.8987L35 3.34217C35.0001 3.16085 34.9282 2.98692 34.8 2.85866ZM29.0596 7.96457C28.7889 8.23532 28.429 8.38443 28.0463 8.38443C27.6634 8.38443 27.3036 8.23532 27.0329 7.96457C26.474 7.40572 26.474 6.49633 27.0329 5.93748C27.3123 5.65798 27.6792 5.51831 28.0463 5.51831C28.1845 5.51831 28.3227 5.5382 28.4562 5.57786L27.6672 6.36698C27.4003 6.63396 27.4003 7.06688 27.6672 7.33393C27.8007 7.46746 27.9757 7.53419 28.1506 7.53419C28.3255 7.53419 28.5005 7.46746 28.634 7.33393L29.4208 6.547C29.5629 7.03372 29.4427 7.5815 29.0596 7.96457Z" />
<path d="M29.2003 13.7645L21.2337 5.79669C20.1784 4.7412 18.4612 4.74134 17.406 5.79669L4.79906 18.4056C4.2878 18.9168 4.00623 19.5966 4.00623 20.3197C4.00623 21.0428 4.28773 21.7227 4.79899 22.2339L12.7656 30.2016C13.2768 30.7129 13.9565 30.9946 14.6794 30.9946C15.4024 30.9946 16.0822 30.713 16.5933 30.2017L29.2003 17.5928C29.7115 17.0815 29.993 16.4017 29.993 15.6786C29.993 14.9556 29.7115 14.2758 29.2003 13.7645ZM28.2335 16.6258L15.6266 29.2349C15.3736 29.4878 15.0372 29.6272 14.6795 29.6272C14.3218 29.6272 13.9854 29.4878 13.7325 29.2348L5.7658 21.267C5.5128 21.014 5.37348 20.6776 5.37348 20.3198C5.37341 19.9619 5.5128 19.6255 5.7658 19.3725L18.3728 6.76365C18.6339 6.50247 18.9769 6.37189 19.3199 6.37189C19.6628 6.37189 20.0059 6.50254 20.2669 6.76365L28.2335 14.7314C28.4865 14.9844 28.6258 15.3208 28.6258 15.6786C28.6258 16.0364 28.4865 16.3729 28.2335 16.6258Z" />
<path d="M22.2904 13.677C22.5574 13.41 22.5574 12.9771 22.2904 12.71C22.0234 12.443 21.5907 12.443 21.3236 12.71L20.93 13.1037C19.879 12.4544 18.5304 12.5415 17.6779 13.394C17.1808 13.8912 16.9265 14.5662 16.9618 15.2949C16.9959 15.9985 17.2989 16.6702 17.8148 17.1862C17.8149 17.1863 17.8149 17.1863 17.8149 17.1864C18.3648 17.7365 18.4261 18.5701 17.9517 19.0446C17.4771 19.5191 16.6435 19.4577 16.0935 18.9077C15.5435 18.3575 15.4821 17.5238 15.9566 17.0492C16.2235 16.7822 16.2235 16.3493 15.9566 16.0823C15.6896 15.8153 15.2569 15.8153 14.9898 16.0823C14.1373 16.9348 14.0503 18.2836 14.6995 19.3349L14.2324 19.8019C13.9655 20.0689 13.9655 20.5018 14.2324 20.7689C14.3663 20.9025 14.5412 20.9693 14.7161 20.9693C14.8911 20.9693 15.066 20.9025 15.1995 20.769L15.6668 20.3016C16.1261 20.5853 16.6419 20.729 17.1486 20.729C17.8013 20.7289 18.4387 20.4915 18.9186 20.0115C19.9259 19.004 19.8647 17.3033 18.7822 16.22C18.782 16.2198 18.7819 16.2196 18.7817 16.2194C18.5065 15.9441 18.3451 15.5923 18.3275 15.2287C18.3112 14.8901 18.4238 14.582 18.6448 14.361C19.1192 13.8864 19.9526 13.9478 20.5027 14.4977C20.5028 14.4978 20.5028 14.4979 20.5028 14.4979C20.5029 14.498 20.503 14.498 20.503 14.498C21.0529 15.0482 21.1142 15.8817 20.6397 16.3563C20.3727 16.6233 20.3727 17.0562 20.6397 17.3232C20.7732 17.4568 20.9481 17.5235 21.1231 17.5235C21.298 17.5235 21.4729 17.4568 21.6064 17.3232C22.4589 16.4706 22.546 15.1218 21.8968 14.0706L22.2904 13.677Z" />
<path d="M15.3717 25.0116L11.8607 21.5C11.5938 21.2332 11.1611 21.2331 10.8939 21.5C10.627 21.767 10.627 22.1999 10.8939 22.467L14.405 25.9786C14.5385 26.112 14.7134 26.1788 14.8884 26.1788C15.0633 26.1788 15.2382 26.112 15.3717 25.9786C15.6387 25.7116 15.6387 25.2787 15.3717 25.0116Z" />
<path d="M9.98799 19.6269C9.86091 19.4998 9.68516 19.4266 9.50476 19.4266C9.32498 19.4266 9.14929 19.4997 9.02146 19.6269C8.89431 19.7541 8.82117 19.9305 8.82117 20.111C8.82117 20.2908 8.89424 20.4672 9.02146 20.5943C9.14861 20.7215 9.32498 20.7947 9.50476 20.7947C9.68523 20.7947 9.86091 20.7215 9.98799 20.5943C10.1158 20.4665 10.189 20.2908 10.189 20.111C10.189 19.9305 10.1158 19.7547 9.98799 19.6269Z" />
</svg>
